Flat Remix Dark/apps/scalable/gpdftext.svg

<svg xmlns="http://www.w3.org/2000/svg" width="64" height="64" version="1">
 <rect style="opacity:0.2" width="46" height="40" x="-51" y="-56" rx="2" ry="2.106" transform="matrix(0,-1,-1,0,0,0)"/>
 <rect style="fill:#66a02c" width="46" height="40" x="-49" y="-56" rx="2" ry="2.106" transform="matrix(0,-1,-1,0,0,0)"/>
 <path style="opacity:0.2" d="m 8.0006003,56.000092 0,1.999977 c 0,1.107987 0.9391891,1.999977 2.1053757,1.999977 l 35.787587,0 c 1.165986,0 2.105975,-0.89199 2.105975,-1.999977 l 0,-1.999977 c 0,1.107987 -0.939989,1.999977 -2.105975,1.999977 l -35.787587,0 c -1.1667865,0 -2.1059757,-0.89199 -2.1059757,-1.999977 z"/>
 <rect style="fill:#7ebc2e" width="46" height="40" x="-59" y="-48" rx="2" ry="2.106" transform="matrix(0,-1,-1,0,0,0)"/>
 <path style="opacity:0.2;fill:#ffffff;stroke:#000000;stroke-width:1.000682" d="m 26.53651,25.234185 c -0.553437,0 -1.07098,0.27135 -1.196182,0.719167 -0.464953,1.716871 0.05539,4.372 0.923343,7.680395 l -0.261822,0.640487 c -0.664541,1.62259 -1.495179,3.238489 -2.225671,4.672655 -3.015555,5.910924 -5.36161,9.099739 -6.925979,9.322074 l -0.006,-0.0649 c -0.0338,-0.737272 1.324365,-2.637983 3.165533,-4.149464 0.191972,-0.155634 1.011511,-0.949673 1.011511,-0.949673 0,0 -1.106117,0.584883 -1.35466,0.73571 -2.30706,1.379363 -3.454891,2.76137 -3.642262,3.678755 -0.05559,0.272471 -0.02,0.607757 0.220447,0.745424 l 0.589852,0.296769 c 1.605784,0.805157 3.580473,-1.311961 6.205486,-5.920338 2.671206,-0.877746 6.004314,-1.704173 9.038867,-2.15205 2.716399,1.554687 5.83234,2.294866 7.029563,1.975302 0.227826,-0.06029 0.467471,-0.23944 0.589853,-0.404449 0.09599,-0.15183 0.230146,-0.759187 0.230146,-0.759187 0,0 -0.225227,0.307024 -0.4107,0.39754 -0.757707,0.358261 -3.149935,-0.239461 -5.604572,-1.442477 2.122486,-0.226303 3.890626,-0.235016 4.835686,0.0675 1.200123,0.383719 1.201183,0.777053 1.185165,0.857195 0.016,-0.0659 0.06979,-0.329518 0.06319,-0.441707 -0.0272,-0.288497 -0.115983,-0.546125 -0.33349,-0.759207 -0.444255,-0.438422 -1.541194,-0.659355 -3.035953,-0.679145 -1.126634,-0.01202 -2.477635,0.08653 -3.944019,0.296767 -0.67204,-0.386542 -1.381196,-0.811484 -1.943133,-1.337558 -1.42503,-1.333133 -2.619414,-3.184008 -3.361105,-5.259141 0.05059,-0.1989 0.09919,-0.393313 0.14338,-0.58943 0.206168,-0.928662 0.354168,-3.998838 0.354168,-3.998838 0,0 -0.587134,2.306484 -0.67938,2.654409 -0.05919,0.220632 -0.132981,0.456107 -0.217729,0.701239 -0.449934,-1.583932 -0.677999,-3.11891 -0.677999,-4.283268 0,-0.329057 0.0282,-0.969344 0.121182,-1.475648 0.0452,-0.361085 0.175973,-0.548588 0.311494,-0.639085 0.268241,0.0653 0.568515,0.477201 0.88197,1.166401 0.26918,0.59586 0.252163,1.285942 0.252163,1.713047 0,0 0.288697,-1.057598 0.221887,-1.68266 -0.0408,-0.375268 -0.397102,-1.340625 -1.154829,-1.329308 l -0.06199,0 -0.337631,-0.004 z m 0.257682,9.589478 c 0.784125,1.579205 1.865526,3.078849 3.284116,4.281865 0.316234,0.267765 0.652705,0.522489 0.999074,0.761971 -2.57622,0.479905 -5.281622,1.154963 -7.795851,2.209937 0.454613,-0.808942 0.94618,-1.690293 1.449746,-2.640588 0.975136,-1.846969 1.56603,-3.271539 2.062895,-4.613165 z"/>
 <path style="opacity:0.2;fill:#ffffff" d="M 10.105469,13 C 8.9392822,13 8,13.891433 8,14.998699 L 8,16 c 0,-1.107266 0.9392822,-1.998699 2.105469,-1.998699 l 35.787109,0 C 47.060564,14.001301 48,14.892734 48,16 l 0,-1.001301 C 48,13.891433 47.060564,13 45.892578,13 l -35.787109,0 z"/>
 <path style="opacity:0.2;fill:#ffffff" d="M 18.105469,3 C 16.939282,3 16,3.8914324 16,4.9986988 L 16,6 c 0,-1.1072663 0.939282,-1.9986988 2.105469,-1.9986988 l 35.787109,0 C 55.060565,4.0013012 56,4.8927337 56,6 L 56,4.9986988 C 56,3.8914324 55.060565,3 53.892578,3 L 18.105469,3 Z"/>
 <path style="fill:#ffffff;stroke:#ffffff;stroke-width:0.99993712" d="m 26.536465,24.308203 c -0.553455,0 -1.071014,0.233178 -1.19622,0.680314 -0.464967,1.714263 0.05539,4.365358 0.923372,7.668727 l -0.26183,0.639514 c -0.664562,1.620125 -1.495225,3.233569 -2.22574,4.665556 -3.015649,5.901944 -5.361777,9.085914 -6.926195,9.307911 l -0.006,-0.0648 c -0.0338,-0.736152 1.324406,-2.633974 3.165632,-4.14316 0.191977,-0.155399 1.011542,-0.948231 1.011542,-0.948231 0,0 -1.106151,0.583994 -1.354702,0.734592 -2.307132,1.377268 -3.454999,2.757175 -3.642376,3.673166 -0.05559,0.272057 -0.02,0.606834 0.220454,0.744292 l 0.589871,0.296318 c 1.605834,0.803933 3.580584,-1.309968 6.205679,-5.911344 2.671289,-0.876412 6.004501,-1.701584 9.039148,-2.14878 2.716484,1.552325 5.832522,2.291379 7.029782,1.972301 0.227833,-0.0602 0.467486,-0.239077 0.589871,-0.403836 0.09599,-0.151598 0.230154,-0.758032 0.230154,-0.758032 0,0 -0.225234,0.306556 -0.410713,0.396936 -0.757731,0.357716 -3.150033,-0.239098 -5.604747,-1.440286 2.122552,-0.225959 3.890747,-0.234658 4.835837,0.0674 1.20016,0.383137 1.20122,0.775872 1.185202,0.855892 0.016,-0.0658 0.06979,-0.329017 0.06319,-0.441036 -0.0272,-0.288057 -0.115987,-0.545294 -0.333501,-0.758053 -0.444268,-0.437756 -1.541242,-0.658353 -3.036047,-0.678113 -1.126669,-0.012 -2.477712,0.0864 -3.944142,0.296316 -0.672061,-0.385956 -1.381239,-0.810251 -1.943193,-1.335527 -1.425075,-1.331107 -2.619496,-3.179169 -3.36121,-5.251151 0.05059,-0.198597 0.09919,-0.392715 0.143384,-0.588534 0.206175,-0.927251 0.339562,-4.093976 0.339562,-4.093976 0,0 -0.572535,2.404193 -0.664784,2.751589 -0.05919,0.220298 -0.132985,0.455416 -0.217735,0.700174 -0.449948,-1.581525 -0.678021,-3.114171 -0.678021,-4.27676 0,-0.328557 0.0282,-0.967871 0.121186,-1.473406 0.0452,-0.360537 0.175979,-0.547755 0.311504,-0.638114 0.268249,0.0652 0.568533,0.476476 0.881997,1.164629 0.269189,0.594954 0.251376,1.283988 0.251376,1.710444 0,0 0.289501,-1.055991 0.222689,-1.680104 -0.0408,-0.374697 -0.397114,-1.304128 -1.154865,-1.292828 -0.133219,9.5e-5 -0.239083,0.0013 -0.372293,0 z m 0.25769,9.537149 c 0.784149,1.576806 1.865584,3.074172 3.284218,4.27536 0.316244,0.267358 0.652725,0.521695 0.999105,0.760813 -2.5763,0.479176 -5.281786,1.153209 -7.796094,2.206579 0.454628,-0.807712 0.94621,-1.687724 1.449792,-2.636575 0.975166,-1.844162 1.566078,-3.266569 2.062959,-4.606157 z"/>
 <path style="opacity:0.2;fill-rule:evenodd" d="M 59.958,46.848198 A 15.999815,15.999815 0 0 1 44.000184,62.000023 15.999815,15.999815 0 0 1 28.042369,47.152194 a 15.999815,15.999815 0 0 0 -0.042,0.84799 A 15.999815,15.999815 0 0 0 44.000184,64 15.999815,15.999815 0 0 0 60,48.000184 15.999815,15.999815 0 0 0 59.958,46.848198 Z"/>
 <circle style="fill:#ffa93e;fill-rule:evenodd" cx="44" cy="47" r="16"/>
 <path style="fill:#ffffff" d="m 36.000277,51.436155 0,3.563959 3.563759,0 9.000696,-9.000696 -3.563759,-3.563759 z m 15.717018,-8.578101 c 0.376956,-0.376935 0.376956,-0.970888 0,-1.347844 l -2.227374,-2.227374 c -0.376956,-0.376956 -0.970909,-0.376956 -1.347844,0 l -1.861979,1.873978 3.563959,3.563959 z"/>
</svg>

<svg xmlns="http://www.w3.org/2000/svg" xmlns:xlink="http://www.w3.org/1999/xlink" width="384pt" height="384pt" version="1.1" viewBox="0 0 384 384">
 <defs>
  <filter id="alpha" width="100%" height="100%" x="0%" y="0%" filterUnits="objectBoundingBox">
   <feColorMatrix in="SourceGraphic" type="matrix" values="0 0 0 0 1 0 0 0 0 1 0 0 0 0 1 0 0 0 1 0"/>
  </filter>
  <mask id="mask0">
   <g filter="url(#alpha)">
    <rect width="384" height="384" x="0" y="0" style="fill:rgb(0%,0%,0%);fill-opacity:0.2"/>
   </g>
  </mask>
  <clipPath id="clip1">
   <rect width="384" height="384" x="0" y="0"/>
  </clipPath>
  <g id="surface5" clip-path="url(#clip1)">
   <path style="fill:rgb(0%,0%,0%)" d="M 336 294 L 336 42 C 336 35.371094 330.34375 30 323.363281 30 L 108.636719 30 C 101.65625 30 96 35.371094 96 42 L 96 294 C 96 300.628906 101.65625 306 108.636719 306 L 323.363281 306 C 330.34375 306 336 300.628906 336 294 Z M 336 294"/>
  </g>
  <mask id="mask1">
   <g filter="url(#alpha)">
    <rect width="384" height="384" x="0" y="0" style="fill:rgb(0%,0%,0%);fill-opacity:0.2"/>
   </g>
  </mask>
  <clipPath id="clip2">
   <rect width="384" height="384" x="0" y="0"/>
  </clipPath>
  <g id="surface8" clip-path="url(#clip2)">
   <path style="fill:rgb(0%,0%,0%)" d="M 48.003906 336 L 48.003906 348 C 48.003906 354.648438 53.640625 360 60.636719 360 L 275.363281 360 C 282.355469 360 287.996094 354.648438 287.996094 348 L 287.996094 336 C 287.996094 342.648438 282.355469 348 275.363281 348 L 60.636719 348 C 53.636719 348 48 342.648438 48 336 Z M 48.003906 336"/>
  </g>
  <mask id="mask2">
   <g filter="url(#alpha)">
    <rect width="384" height="384" x="0" y="0" style="fill:rgb(0%,0%,0%);fill-opacity:0.2"/>
   </g>
  </mask>
  <clipPath id="clip3">
   <rect width="384" height="384" x="0" y="0"/>
  </clipPath>
  <g id="surface11" clip-path="url(#clip3)">
   <path style="fill:rgb(100%,100%,100%);stroke-width:1.000682;stroke:rgb(0%,0%,0%)" d="M 26.536458 25.234375 C 25.983073 25.234375 25.465495 25.505859 25.340495 25.953125 C 24.875651 27.669922 25.395833 30.325521 26.263672 33.633464 L 26.001953 34.274089 C 25.33724 35.897135 24.50651 37.513021 23.776042 38.946615 C 20.760417 44.858073 18.414714 48.046875 16.85026 48.26888 L 16.844401 48.203776 C 16.810547 47.466797 18.16862 45.565755 20.009766 44.054688 C 20.201823 43.899089 21.021484 43.104818 21.021484 43.104818 C 21.021484 43.104818 19.915365 43.690104 19.666667 43.840495 C 17.359375 45.220052 16.211589 46.602214 16.024089 47.519531 C 15.96875 47.791667 16.004557 48.126953 16.244792 48.264974 L 16.834635 48.561849 C 18.440104 49.366536 20.415365 47.249349 23.040365 42.641276 C 25.711589 41.763672 29.044271 40.936849 32.078776 40.488932 C 34.795573 42.04362 37.911458 42.783854 39.108724 42.464193 C 39.336589 42.404297 39.576172 42.22526 39.698568 42.059896 C 39.794271 41.908203 39.928385 41.300781 39.928385 41.300781 C 39.928385 41.300781 39.703125 41.608073 39.517578 41.698568 C 38.760417 42.056641 36.367839 41.458984 33.913411 40.255859 C 36.035807 40.029297 37.804036 40.020833 38.748698 40.323568 C 39.949219 40.707031 39.94987 41.10026 39.934245 41.180339 C 39.94987 41.114583 40.003906 40.850911 39.997396 40.738932 C 39.970052 40.450521 39.88151 40.192708 39.664062 39.979818 C 39.219401 39.541016 38.122396 39.320312 36.627604 39.300781 C 35.501302 39.288411 34.150391 39.38737 32.683594 39.597005 C 32.011719 39.210938 31.302734 38.785807 30.740885 38.259766 C 29.315755 36.926432 28.121094 35.075521 27.379557 33.000651 C 27.430339 32.801432 27.478516 32.607422 27.522786 32.411458 C 27.729167 31.482422 27.876953 28.412109 27.876953 28.412109 C 27.876953 28.412109 27.289714 30.71875 27.197917 31.067057 C 27.138672 31.287109 27.065104 31.522786 26.979818 31.768229 C 26.529948 30.184245 26.302083 28.649089 26.302083 27.485026 C 26.302083 27.155599 26.330078 26.515625 26.423177 26.009115 C 26.46875 25.647786 26.598958 25.460286 26.735026 25.369792 C 27.003255 25.435547 27.303385 25.847005 27.616536 26.536458 C 27.886068 27.132161 27.869141 27.822266 27.869141 28.249349 C 27.869141 28.249349 28.157552 27.192057 28.090495 26.567057 C 28.05013 26.191406 27.693359 25.225911 26.936198 25.23763 L 26.873698 25.23763 L 26.536458 25.233724 Z M 26.794271 34.823568 C 27.578125 36.402995 28.659505 37.902344 30.078125 39.105469 C 30.394531 39.373047 30.73112 39.628255 31.077474 39.867188 C 28.501302 40.347656 25.795573 41.022786 23.28125 42.077474 C 23.736328 41.268229 24.227865 40.38737 24.73112 39.436849 C 25.70638 37.589844 26.297526 36.165365 26.794271 34.823568 Z M 26.794271 34.823568" transform="matrix(6,0,0,6,0,0)"/>
  </g>
  <mask id="mask3">
   <g filter="url(#alpha)">
    <rect width="384" height="384" x="0" y="0" style="fill:rgb(0%,0%,0%);fill-opacity:0.2"/>
   </g>
  </mask>
  <clipPath id="clip4">
   <rect width="384" height="384" x="0" y="0"/>
  </clipPath>
  <g id="surface14" clip-path="url(#clip4)">
   <path style="fill:rgb(100%,100%,100%)" d="M 60.632812 78 C 53.636719 78 48 83.347656 48 89.992188 L 48 96 C 48 89.355469 53.636719 84.007812 60.632812 84.007812 L 275.355469 84.007812 C 282.363281 84.007812 288 89.355469 288 96 L 288 89.992188 C 288 83.347656 282.363281 78 275.355469 78 Z M 60.632812 78"/>
  </g>
  <mask id="mask4">
   <g filter="url(#alpha)">
    <rect width="384" height="384" x="0" y="0" style="fill:rgb(0%,0%,0%);fill-opacity:0.2"/>
   </g>
  </mask>
  <clipPath id="clip5">
   <rect width="384" height="384" x="0" y="0"/>
  </clipPath>
  <g id="surface17" clip-path="url(#clip5)">
   <path style="fill:rgb(100%,100%,100%)" d="M 108.632812 18 C 101.636719 18 96 23.347656 96 29.992188 L 96 36 C 96 29.355469 101.636719 24.007812 108.632812 24.007812 L 323.355469 24.007812 C 330.363281 24.007812 336 29.355469 336 36 L 336 29.992188 C 336 23.347656 330.363281 18 323.355469 18 Z M 108.632812 18"/>
  </g>
  <mask id="mask5">
   <g filter="url(#alpha)">
    <rect width="384" height="384" x="0" y="0" style="fill:rgb(0%,0%,0%);fill-opacity:0.2"/>
   </g>
  </mask>
  <clipPath id="clip6">
   <rect width="384" height="384" x="0" y="0"/>
  </clipPath>
  <g id="surface20" clip-path="url(#clip6)">
   <path style="fill-rule:evenodd;fill:rgb(0%,0%,0%)" d="M 359.746094 281.089844 C 357.046875 332.015625 314.996094 371.9375 264 372 C 213.664062 372 171.878906 333.117188 168.253906 282.914062 C 168.125 284.605469 168.042969 286.304688 168.003906 288 C 168.003906 341.019531 210.980469 384 264 384 C 317.019531 384 360 341.019531 360 288 C 360 285.695312 359.914062 283.390625 359.746094 281.089844 Z M 359.746094 281.089844"/>
  </g>
 </defs>
 <g>
  <use mask="url(#mask0)" xlink:href="#surface5"/>
  <path style="fill:rgb(40%,62.745098%,17.254902%)" d="M 336 282 L 336 30 C 336 23.371094 330.34375 18 323.363281 18 L 108.636719 18 C 101.65625 18 96 23.371094 96 30 L 96 282 C 96 288.628906 101.65625 294 108.636719 294 L 323.363281 294 C 330.34375 294 336 288.628906 336 282 Z M 336 282"/>
  <use mask="url(#mask1)" xlink:href="#surface8"/>
  <path style="fill:rgb(49.411765%,73.72549%,18.039216%)" d="M 288 342 L 288 90 C 288 83.371094 282.34375 78 275.363281 78 L 60.636719 78 C 53.65625 78 48 83.371094 48 90 L 48 342 C 48 348.628906 53.65625 354 60.636719 354 L 275.363281 354 C 282.34375 354 288 348.628906 288 342 Z M 288 342"/>
  <use mask="url(#mask2)" xlink:href="#surface11"/>
  <use mask="url(#mask3)" xlink:href="#surface14"/>
  <use mask="url(#mask4)" xlink:href="#surface17"/>
  <path style="fill:rgb(100%,100%,100%);stroke-width:0.999937;stroke:rgb(100%,100%,100%)" d="M 26.536458 24.307943 C 25.983073 24.307943 25.465495 24.541667 25.340495 24.988281 C 24.875 26.702474 25.395833 29.354167 26.263672 32.657552 L 26.001953 33.296875 C 25.33724 34.916667 24.50651 36.530599 23.776042 37.96224 C 20.760417 43.864583 18.414062 47.048177 16.849609 47.270182 L 16.84375 47.205729 C 16.809896 46.469401 18.167969 44.571615 20.009766 43.0625 C 20.201172 42.906901 21.020833 42.113932 21.020833 42.113932 C 21.020833 42.113932 19.914714 42.697917 19.666016 42.848307 C 17.359375 44.225911 16.211589 45.60612 16.024089 46.521484 C 15.968099 46.79362 16.003906 47.128906 16.244141 47.266276 L 16.833984 47.5625 C 18.440104 48.366536 20.414714 46.252604 23.039714 41.651042 C 25.710938 40.77474 29.044271 39.949219 32.078776 39.501953 C 34.795573 41.054688 37.911458 41.79362 39.108724 41.474609 C 39.336589 41.414062 39.576172 41.235677 39.698568 41.070964 C 39.794922 40.919271 39.929036 40.3125 39.929036 40.3125 C 39.929036 40.3125 39.703776 40.619141 39.518229 40.709635 C 38.760417 41.067057 36.367839 40.470703 33.913411 39.269531 C 36.035807 39.04362 37.804036 39.034505 38.749349 39.336589 C 39.949219 39.720052 39.950521 40.11263 39.934245 40.192708 C 39.950521 40.126953 40.004557 39.863932 39.997396 39.751302 C 39.970703 39.463542 39.88151 39.20638 39.664062 38.99349 C 39.220052 38.55599 38.123047 38.335286 36.628255 38.315755 C 35.501302 38.303385 34.150391 38.401693 32.684245 38.611979 C 32.011719 38.225911 31.302734 37.801432 30.740885 37.276042 C 29.315755 35.945312 28.121094 34.097005 27.379557 32.025391 C 27.430339 31.826172 27.478516 31.632161 27.522786 31.436849 C 27.729167 30.509115 27.86263 27.342448 27.86263 27.342448 C 27.86263 27.342448 27.289714 29.746745 27.197917 30.094401 C 27.138672 30.314453 27.064453 30.549479 26.979818 30.794271 C 26.529948 29.212891 26.302083 27.680339 26.302083 26.517578 C 26.302083 26.188802 26.330078 25.549479 26.423177 25.044271 C 26.468099 24.683594 26.598958 24.496745 26.734375 24.40625 C 27.002604 24.471354 27.303385 24.882812 27.616536 25.570964 C 27.886068 26.165365 27.867839 26.854818 27.867839 27.28125 C 27.867839 27.28125 28.157552 26.22526 28.090495 25.600911 C 28.05013 25.226562 27.693359 24.296875 26.936198 24.307943 C 26.802734 24.308594 26.696615 24.309245 26.563802 24.307943 Z M 26.794271 33.845052 C 27.578125 35.421875 28.659505 36.919271 30.078125 38.120443 C 30.394531 38.388021 30.73112 38.642578 31.077474 38.88151 C 28.501302 39.360677 25.795573 40.034505 23.28125 41.087891 C 23.736328 40.280599 24.227865 39.400391 24.73112 38.451823 C 25.70638 36.607422 26.297526 35.184896 26.794271 33.845052 Z M 26.794271 33.845052" transform="matrix(6,0,0,6,0,0)"/>
  <use mask="url(#mask5)" xlink:href="#surface20"/>
  <path style="fill-rule:evenodd;fill:rgb(100%,66.27451%,24.313725%)" d="M 360 282 C 360 335.019531 317.019531 378 264 378 C 210.980469 378 168 335.019531 168 282 C 168 228.980469 210.980469 186 264 186 C 317.019531 186 360 228.980469 360 282 Z M 360 282"/>
  <path style="fill:rgb(100%,100%,100%)" d="M 216 308.617188 L 216 330 L 237.382812 330 L 291.386719 275.996094 L 270.003906 254.613281 Z M 310.304688 257.148438 C 312.566406 254.886719 312.566406 251.324219 310.304688 249.0625 L 296.941406 235.695312 C 294.679688 233.433594 291.113281 233.433594 288.851562 235.695312 L 277.679688 246.941406 L 299.0625 268.324219 Z M 310.304688 257.148438"/>
 </g>
</svg>
